components/icon/svg/24/action_remove.svg

<?xml version="1.0" encoding="UTF-8"?>
<svg width="24px" height="24px" viewBox="0 0 24 24" version="1.1" xmlns="http://www.w3.org/2000/svg" xmlns:xlink="http://www.w3.org/1999/xlink">
    <!-- Generator: Sketch 64 (93537) - https://sketch.com -->
    <title>ic-db_action_remove_24</title>
    <desc>Created with Sketch.</desc>
    <g id="Symbols:Icon" stroke="none" stroke-width="1" fill="none" fill-rule="evenodd">
        <g id="24dp-Icon/Action/Remove" fill="#282D37">
            <path d="M12.0118,2 C17.5112,2 22,6.4888 22,11.9882 C21.9765,17.5112 17.5112,21.9765 11.9882,22 C6.4888,22 2,17.5112 2,12.0118 C2,6.4653 6.4418,2 12.0118,2 Z M11.9976,3.9976 C7.57410239,3.9976 3.9976,7.5699 3.9976,11.9882 C3.9976,16.4066 7.57410239,20.0024 11.9976,20.0024 C16.4211977,20.0024 19.9976,16.4066 19.9976,11.9882 C19.9976,7.5699 16.4211977,3.9976 11.9976,3.9976 Z M17.0163986,11.0027 C17.5575779,11.0027 18.0047,11.4498072 18.0047,11.9909683 C18.0047,12.5555928 17.5575779,13.0027 17.0163986,13.0027 L6.99290108,13.0027 C6.45172186,13.0027 6.0047,12.5555928 6.0047,11.9909683 C6.0047,11.4498072 6.45172186,11.0027 6.99290108,11.0027 L17.0163986,11.0027 Z" id="🎨-Color"></path>
        </g>
    </g>
</svg>

<svg width="24" height="24" xmlns="http://www.w3.org/2000/svg"><path d="M12.012 2C17.512 2 22 6.489 22 11.988A10.05 10.05 0 0111.988 22C6.488 22 2 17.511 2 12.012A9.975 9.975 0 0112.012 2zm-.014 1.998c-4.424 0-8 3.572-8 7.99 0 4.419 3.576 8.014 8 8.014 4.423 0 8-3.595 8-8.014a7.989 7.989 0 00-8-7.99zm5.018 7.005c.542 0 .989.447.989.988a1 1 0 01-.989 1.012H6.993a1 1 0 01-.988-1.012c0-.541.447-.988.988-.988h10.023z" fill="#282D37" fill-rule="evenodd"/></svg>
